svg/m/MQ-UNF.svg

<svg fill="none" height="15" viewBox="0 0 20 15" width="20" xmlns="http://www.w3.org/2000/svg"><path d="m0 0h20v15h-20z" fill="#21428e"/><path clip-rule="evenodd" d="m7.8273 3.20719c0 .04586.02685.07461.04765.0969.035.03749.05289.05666-.10282.10808-.23449.08199-.869.19131-1.3104.17764-.0844 0-.23282-.02959-.36454-.05586-.10508-.02096-.19953-.03979-.24238-.03979-.05774.00715.07337.07417.17987.12861.09703.0496.17363.08876.06842.0627-.30346-.08199-.48278-.10932-.24829.041.17932.10932.57934.10932 1.14488.04099.11582-.01434.33042-.05503.53813-.09441.18807-.03566.37048-.07025.4688-.08324.07919-.00784.11291.02935.14294.06245.02227.02456.04251.04688.07776.04688.74486.04099 2.06908.01366 2.64838-.06833.4828-.06833.6621-.041.8.12299.2759.31429-.0138.5876-.8.75158-.96556.20497-1.36557.38262-1.738.77891-.89659.95655.15173 2.0361 2.1104 2.18641 1.1449.09566 1.8898.3143 1.7104.49195-.0689.06832-.8276.17764-1.6966.24597-1.88971.15032-2.73112.40995-3.44839 1.09321-.40001.38262-.53795.61493-.53795.92927 0 .1815 0 .2877-.05232.3498-.07369.0874-.2512.0874-.67874.0874-.38623 0-.92418-.0546-1.17246-.1366-.38623-.0957-.4414-.0957-.30346.0683.27587.328 1.06211.6149 1.71041.6149.49657 0 .77244.0957 1.21384.41.88279.6423 1.88973.8882 3.55877.8746 2.1932-.0137 3.4484-.5876 3.4484-1.5579 0-.7242-.8276-1.14783-2.5518-1.29814-.869-.08199-2.57944.05466-3.32429.2733-.13794.04099.01379-.05466.34484-.21864.40001-.19132 1.06215-.32797 1.95865-.40996 1.9863-.16398 2.8829-.60126 2.8829-1.42117 0-.79257-.8828-1.24352-2.7725-1.42117-1.86215-.16398-2.00008-.49194-.4276-.97022 1.1173-.32796 1.6828-.81991 1.6828-1.4895 0-1.02488-.5655-1.36651-2.4553-1.46216-1.14482-.05466-1.4207-.02733-1.91727.20497-.33105.15032-.59313.36896-.59313.47828zm1.63751-.10719c-.06444.125-.23629.25-.3437.25-.12888 0-.15036-.125-.08592-.25.06444-.15.23629-.25.3437-.25.12888 0 .15036.1.08592.25zm1.36469 8.3846c.9125.0788 2.4105-.1574 2.642-.4251.0818-.0945-.4807-.3385-.7394-.4488-.9265-.2865-2.76054-.1811-3.67299.2283-.32685.1575.76264.5354 1.77039.6456z" fill="#fff" fill-rule="evenodd"/></svg>

<svg width="20" height="15" viewBox="0 0 20 15" fill="none" xmlns="http://www.w3.org/2000/svg">
<rect width="20" height="15" fill="#21428E"/>
<path fill-rule="evenodd" clip-rule="evenodd" d="M7.8273 3.20719C7.8273 3.25305 7.85415 3.2818 7.87495 3.30409C7.90995 3.34158 7.92784 3.36075 7.77213 3.41217C7.53764 3.49416 6.90313 3.60348 6.46173 3.58981C6.37733 3.58981 6.22891 3.56022 6.09719 3.53395L6.09719 3.53395C5.99211 3.51299 5.89766 3.49416 5.85481 3.49416C5.79707 3.50131 5.92818 3.56833 6.03468 3.62277C6.13171 3.67237 6.20831 3.71153 6.1031 3.68547C5.79964 3.60348 5.62032 3.57615 5.85481 3.72647C6.03413 3.83579 6.43415 3.83579 6.99969 3.76746C7.11551 3.75312 7.33011 3.71243 7.53782 3.67305L7.53782 3.67305C7.72589 3.63739 7.9083 3.6028 8.00662 3.58981C8.08581 3.58197 8.11953 3.61916 8.14956 3.65226C8.17183 3.67682 8.19207 3.69914 8.22732 3.69914C8.97218 3.74013 10.2964 3.7128 10.8757 3.63081C11.3585 3.56248 11.5378 3.58981 11.6757 3.7538C11.9516 4.06809 11.6619 4.3414 10.8757 4.50538C9.91014 4.71035 9.51013 4.888 9.1377 5.28429C8.24111 6.24084 9.28943 7.32039 11.2481 7.4707C12.393 7.56636 13.1379 7.785 12.9585 7.96265C12.8896 8.03097 12.1309 8.14029 11.2619 8.20862C9.37219 8.35894 8.53078 8.61857 7.81351 9.30183C7.4135 9.68445 7.27556 9.91676 7.27556 10.2311C7.27556 10.4126 7.27556 10.5188 7.22324 10.5809C7.14955 10.6683 6.97204 10.6683 6.5445 10.6683C6.15827 10.6683 5.62032 10.6137 5.37204 10.5317C4.98581 10.436 4.93064 10.436 5.06858 10.6C5.34445 10.928 6.13069 11.2149 6.77899 11.2149C7.27556 11.2149 7.55143 11.3106 7.99283 11.6249C8.87562 12.2672 9.88256 12.5131 11.5516 12.4995C13.7448 12.4858 15 11.9119 15 10.9416C15 10.2174 14.1724 9.79377 12.4482 9.64346C11.5792 9.56147 9.86876 9.69812 9.12391 9.91676C8.98597 9.95775 9.1377 9.8621 9.46875 9.69812C9.86876 9.5068 10.5309 9.37015 11.4274 9.28816C13.4137 9.12418 14.3103 8.6869 14.3103 7.86699C14.3103 7.07442 13.4275 6.62347 11.5378 6.44582C9.67565 6.28184 9.53772 5.95388 11.1102 5.4756C12.2275 5.14764 12.793 4.65569 12.793 3.9861C12.793 2.96122 12.2275 2.61959 10.3377 2.52394C9.19288 2.46928 8.917 2.49661 8.42043 2.72891C8.08938 2.87923 7.8273 3.09787 7.8273 3.20719ZM9.46481 3.1C9.40037 3.225 9.22852 3.35 9.12111 3.35C8.99223 3.35 8.97075 3.225 9.03519 3.1C9.09963 2.95 9.27148 2.85 9.37889 2.85C9.50777 2.85 9.52925 2.95 9.46481 3.1ZM10.8295 11.4846C11.742 11.5634 13.24 11.3272 13.4715 11.0595C13.5533 10.965 12.9908 10.721 12.7321 10.6107C11.8056 10.3242 9.97156 10.4296 9.05911 10.839C8.73226 10.9965 9.82175 11.3744 10.8295 11.4846Z" fill="white"/>
</svg>
